X:31
T:Paul Anderson's Hornpipe
M:4/4
L:1/8
C:George Carmichael
R:Hornpipe
K:D
A>F|"D"D>FA>D F>A (3dc=c|"G"B>GB>d e>dc>B|"A"A>ce>A c>e (3gfe|"D"d>fA>d
"A7"  ^E>F=E>_E|!
"D"D>FA>D F>A (3dc=c|"G"B>GB>d e>dc>B|"A"A>ce>g f>ed>c|"Gm"e2 "D"d2 d2:|
!
|:(3cd^d|"A"e>Ac>e g>gf>e|"D"f>Ad>f a>ag>f|"E"^g>Be>g b>ba>g|"A"(3aba (3
gag e>cB>_B|!
"D"A>F (3dc=c "G"B>G (3e^d=d|"A"c>A a^g=g "D"f>d A>F|"G"G>Bd>g "A"f>ed>c
|"G
m"e2 "D"d2 d2:||
